X: 11045
T: JANE'S HAMBO
C: Bob McQuillen 15 Sept 94
B: Bob's Note Book 11 #45
%R: hambo
Z: 2020 John Chambers <jc:trillian.mit.edu>
M: 3/4
L: 1/8
K: Em
GF \
| "Em"E2 EF GA | G2 E2 Bd | e2 ef ed | B2 d2 Bd | ed B2 GA | "Am"B2 A2 BA | "Em"G2 GE GB | "Bm"AF D2 GF |
| "Em"E2 EF GA | G2 E2 Bd | e2 ef ed | B2 d2 ef | g2 ed BG | "Am"B2 A2 BA | "Em"G2 E3  D | E4 ||
|| GA \
| "Em"B2 BG EG | "Bm"F2 D2 GA | "Em"B2 Bd eg | f2 e2 ef | g2 gf ed | "Am"B2 A2 BA | "Em"G2 EG AG | "Bm"F2 D2 GA |
| "Em"BG EG AG | "Bm"F2 D2 GA | "Em"B2 Bd eg | f2 e2 ga | bg eg fe | "Am"dB A2 BA | "Em"G2 E2 ED | "Em"E4 |]
%%begintext align
%% "Old New England's"
%% wonderful fiddler, loves to play Swedish music when
%% whe gets a chance, so here is a hambo for you to try
%% out, Janie, and I sure hope you like it!
%%endtext

%%sep 1 1 500

%%sep 1 1 500

